!!!COM: Palestrina, Giovanni Perluigi da
!!!OPR: Missa In festis Apostolorum (II)
!!!OMD: Gloria
!!!OTL: First Section
**kern	**kern	**kern	**kern	**kern
*Ibass	*Itenor	*Itenor	*Icalto	*Icant
!Bassus	!Tenor 2	!Tenor 1	!Altus	!Cantus
*clefF4	*clefGv2	*clefGv2	*clefG2	*clefG2
*k[]	*k[]	*k[]	*k[]	*k[]
*D:dor	*D:dor	*D:dor	*D:dor	*D:dor
*M4/2	*M4/2	*M4/2	*M4/2	*M4/2
=1	=1	=1	=1	=1
0r	0r	1G	0r	0r
.	.	1A	.	.
=2	=2	=2	=2	=2
0r	0r	2.c	0r	1g
.	.	4B	.	.
.	.	4A	.	1a
.	.	4G	.	.
.	.	2F	.	.
=3	=3	=3	=3	=3
0r	0r	2.A	1c	2.cc
.	.	4G	.	4b
.	.	4F	1d	4a
.	.	4E	.	4g
.	.	[2D	.	[2f
=4	=4	=4	=4	=4
0r	1r	2D]	1f	4f]
.	.	.	.	4e
.	.	2F	.	2.d
.	1G	1E	1g	.
.	.	.	.	4c#
.	.	.	.	4c#
.	.	.	.	8B
.	.	.	.	8c#
=5	=5	=5	=5	=5
0r	1A	4D	1f	2d
.	.	4E	.	.
.	.	4F	.	1a
.	.	4G	.	.
.	1c	2A	1e	.
.	.	2A	.	2a
=6	=6	=6	=6	=6
0r	1d	4D	1.f	1.a
.	.	4E	.	.
.	.	4F	.	.
.	.	4G	.	.
.	1c	4A	.	.
.	.	4B	.	.
.	.	2c	2e	4g
.	.	.	.	4f
=7	=7	=7	=7	=7
1r	1B	1.G	1d	4g
.	.	.	.	4a
.	.	.	.	2.g
1C	1c	.	1e	.
.	.	.	.	4f
.	.	2A	.	2e
=8	=8	=8	=8	=8
1D	1A	2.F	1r	2d
.	.	.	.	1a
.	.	4G	.	.
2.F	1A	4A	1c	.
.	.	4B	.	.
.	.	2c	.	2f
4E	.	.	.	.
=9	=9	=9	=9	=9
4D	2r	2.F	1d	1.f
4C	.	.	.	.
1BB-	1d	.	.	.
.	.	4E	.	.
.	.	2D	1f	.
2AA	2c	2A	.	2a
=10	=10	=10	=10	=10
0GG	2.B-	1D	2.g	0b-
.	4A	.	4f	.
.	2G	2r	2e	.
.	2F	2D	2d	.
=11	=11	=11	=11	=11
0AA	2E	1A	2c#	[0a
.	2D	.	1d	.
.	1E	1A	.	.
.	.	.	2c#	.
=12	=12	=12	=12	=12
[0D	[0D	[0F#	[0d	1a_
.	.	.	.	1a_
=13	=13	=13	=13	=13
0D]	0D]	0F#]	0d]	0a]
*-	*-	*-	*-	*-
!!!CDT: 1525/^1526/-1594/2/2
!!!OCY: Italia
!!!AGN: Mass (Paraphrase)
!!!AST: renaissance, vocal
!!!ASW: Gregorian Mass
!!!PWK: Masses, Book Mantuan II
!!!RNB: Cadence finals: A
!!!YOR: Le Opere Complete, v. 19, p. 1
!!!YOO: Rome, Italy: Fratelli Scalera
!!!END: 1992//
!!!EED: John Miller
!!!YEC: Copyright 2000, John Miller
!!!YEN: United States of America
!!!YEM: Rights to all derivative electronic formats reserved.
!!!YEM: Refer to licensing agreement for further details.
!!!YEM: This file must be accompanied by the licensing agreement.
!!!YEM: A copy of the licensing agreement may be found at http://www.music-cog.ohio-state.edu/HumdrumDatabases/Palestrina/license.txt
!!!EMD: converted to Humdrum by Bret Aarden
